X: 2292
T: Back To Glasgow And Back To Back Again
R: strathspey
M: 4/4
K: Amixolydian
|:d>e A<G A>A A>B|d2 B<A A2 B<d|f>e e>f e>B d>e|a>f f>a e>A B<e|d>e A<G A>A A>d:|
|:d>e A<G a>f f<f|f>e e>d f>e e>d|d>e B<A G>A B<G|
[1 a>f f>a e>A B<e|d>e A<G A>A A2:|2 f>e e>d d>A B<e|d>e A<G A>A A2||

